svg/u1f94a.svg

<svg viewBox="0 0 128 128" xmlns="http://www.w3.org/2000/svg">
  <path d="M40.88,87.77c0,0-0.41,28.36,0.41,29.5c0.83,1.14,8.28,6.42,22.57,6.62s22.36-5.8,22.57-7.14 c0.21-1.35,0.72-30.95,0.72-30.95s7.66-4.04,13.04-13.15c5.38-9.11,9.11-21.53,8.9-31.68c-0.19-9.11-3.62-10.56-5.38-11.8 c-1.76-1.24-3.52-1.04-3.52-1.04s-1-13.07-6.52-18.43C86.64,2.89,75.87,3.3,63.97,3.3c-12.11,0-24.19-0.76-32.61,10.97 c-7.35,10.25-5.59,26.29-5.18,34.26c0.41,7.97,3.38,20.93,5.59,25.98C36.12,84.46,40.88,87.77,40.88,87.77z" fill="#DC0D28"/>
  <path d="M47.73,107.38c-0.11,4.74,1.67,8.02,16.36,7.97s15.72-2.75,15.88-7.59c0.13-3.78-1.51-6.19-7.32-5.98 c-4.14,0.15-13.58,0.04-18.79-0.11C51.01,101.59,47.83,102.54,47.73,107.38z" fill="#FFC402"/>
  <path d="M40.88,87.77c0,0,9.55,3.14,22.87,3.28c13.61,0.14,23.4-5.24,23.4-5.24l-0.19,7.49 c0,0-8.7,4.21-23.07,4.21s-23.07-3.44-23.07-3.44L40.88,87.77z" fill="#950D19"/>
  <path d="M79.32,26.17c2.03,2.49,5.4,0.42,7.57-0.14c2.17-0.56,6.17-0.49,6.31-0.14s-5.12,1.4-7.92,7.29 c-2.17,4.55-1.57,10.14-1.36,12.03c0.3,2.73,1.78,6.69,5.36,6.69c4.35,0,4.77-3.86,4.91-5.82c0.14-1.96-1.15-10.96,1.32-14.83 c2.15-3.38,4.69-3.12,4.69-3.12s-0.19-1.9-0.4-3.16c-0.21-1.26-0.48-2.61-0.48-2.61s-3.86-2.02-6.74-3.21S84.37,17.48,81,20.07 C78.28,22.17,78.69,25.4,79.32,26.17z" fill="#950D19"/>
</svg>

<svg viewBox="0 0 128 128" xmlns="http://www.w3.org/2000/svg">
  <defs/>
  <path d="M40.88,87.77 C40.88,87.77 40.47,116.13 41.29,117.27 C42.12,118.41 49.57,123.69 63.86,123.89 C78.15,124.09 86.22,118.09 86.43,116.75 C86.64,115.4 87.15,85.8 87.15,85.8 C87.15,85.8 94.81,81.76 100.19,72.65 C105.57,63.54 109.3,51.12 109.09,40.97 C108.9,31.86 105.47,30.41 103.71,29.17 C101.95,27.93 100.19,28.13 100.19,28.13 C100.19,28.13 99.19,15.06 93.67,9.7 C86.64,2.89 75.87,3.3 63.97,3.3 C51.86,3.3 39.78,2.54 31.36,14.27 C24.01,24.52 25.77,40.56 26.18,48.53 C26.59,56.5 29.56,69.46 31.77,74.51 C36.12,84.46 40.88,87.77 40.88,87.77 Z" fill="#DC0D28"/>
  <path d="M47.73,107.38 C47.62,112.12 49.4,115.4 64.09,115.35 C78.78,115.3 79.81,112.6 79.97,107.76 C80.1,103.98 78.46,101.57 72.65,101.78 C68.51,101.93 59.07,101.82 53.86,101.67 C51.01,101.59 47.83,102.54 47.73,107.38 Z" fill="#FFC402"/>
  <path d="M40.88,87.77 C40.88,87.77 50.43,90.91 63.75,91.05 C77.36,91.19 87.15,85.81 87.15,85.81 L86.96,93.3 C86.96,93.3 78.26,97.51 63.89,97.51 C49.52,97.51 40.82,94.07 40.82,94.07 L40.88,87.77 Z" fill="#950D19"/>
  <path d="M79.32,26.17 C81.35,28.66 84.72,26.59 86.89,26.03 C89.06,25.47 93.06,25.54 93.2,25.89 C93.34,26.24 88.08,27.29 85.28,33.18 C83.11,37.73 83.71,43.32 83.92,45.21 C84.22,47.94 85.7,51.9 89.28,51.9 C93.63,51.9 94.05,48.04 94.19,46.08 C94.33,44.12 93.04,35.12 95.51,31.25 C97.66,27.87 100.2,28.13 100.2,28.13 C100.2,28.13 100.01,26.23 99.8,24.97 C99.59,23.71 99.32,22.36 99.32,22.36 C99.32,22.36 95.46,20.34 92.58,19.15 C89.7,17.96 84.37,17.48 81,20.07 C78.28,22.17 78.69,25.4 79.32,26.17 Z" fill="#950D19"/>
</svg>
